X: 05091
T: WINNIE OAK
C: Bob McQuillen 10 Feb 81
B: Bob's Note Book 05 #91
%R: reel, hornpipe
Z: 2020 John Chambers <jc:trillian.mit.edu>
M: C
L: 1/8
K: G
DE \
| G2GB AGED | BAGB AGED | GBdg edBG | AGAB dBAB |\
| G2GB AGED | BAGB AGED | GBdg edeg | dBAB G2 :|
|: de \
| g2ag edBd | g2ag edBd | gage dBdg | edBG A2de |\
| g2ag edBd | gagb agef | gabg ageg | dBAB G2 :|
%%begintext align
%% Winnie Oak was a
%% most delightful lady and a geat favorite af all who
%% knew her. She was formerly Applejack's piano player,
%% and she will be greatly missed.
%%endtext

%%sep 1 1 500

%%sep 1 1 500

